app/client/public/images/pirate.svg

<svg width="228" height="219" viewBox="0 0 228 219" xmlns="http://www.w3.org/2000/svg"><title>Pirate Head</title><g fill="none" fill-rule="evenodd"><path d="M204.498 115.861c0 34.103-40.07 61.75-89.5 61.75s-89.5-27.647-89.5-61.75c0-34.104 40.07-61.75 89.5-61.75s89.5 27.646 89.5 61.75" fill="#F6E0C9"/><path d="M171.831 148.444c0 8.469-6.865 15.334-15.334 15.334-8.468 0-15.333-6.865-15.333-15.334 0-8.468 6.865-15.333 15.333-15.333 8.469 0 15.334 6.865 15.334 15.333m-83.666 0c0 8.469-6.865 15.334-15.334 15.334-8.468 0-15.333-6.865-15.333-15.334 0-8.468 6.865-15.333 15.333-15.333 8.469 0 15.334 6.865 15.334 15.333" fill="#ECC5AB"/><path d="M10.797 115.213c0 6.113 4.956 11.069 11.069 11.069s11.068-4.956 11.068-11.069c0-6.112-4.955-11.068-11.068-11.068-6.113 0-11.069 4.956-11.069 11.068" fill="#F6E0C9"/><path d="M14.268 115.356s-.357-3.692 2.157-5.718c2.515-2.027 6.915-1.765 6.915-1.765s-4.251 3.129-5.41 6.168c-.436 1.14-.684 3.096-.121 4.554.937 2.433 3.128 4.253 3.128 4.253s-2.535-1.009-3.988-3.112c-.988-1.434-1.177-3.799-.887-5.039.719-3.058 2.466-4.382 2.466-4.382s-.796-.084-2.095.868c-1.518 1.112-2.165 4.173-2.165 4.173" fill="#ECC5AB"/><path d="M218.895 115.213c0 6.113-4.957 11.069-11.07 11.069-6.112 0-11.067-4.956-11.067-11.069 0-6.112 4.955-11.068 11.067-11.068 6.113 0 11.07 4.956 11.07 11.068" fill="#F6E0C9"/><path d="M215.424 115.356s.356-3.692-2.157-5.718c-2.515-2.027-6.915-1.765-6.915-1.765s4.25 3.129 5.41 6.168c.435 1.14.683 3.096.121 4.554-.938 2.433-3.129 4.253-3.129 4.253s2.535-1.009 3.988-3.112c.989-1.434 1.178-3.799.888-5.039-.72-3.058-2.467-4.382-2.467-4.382s.796-.084 2.096.868c1.517 1.112 2.165 4.173 2.165 4.173M114.998 53.111c-42.939 0-78.808 20.864-87.49 48.699 20.252 1.8 50.927 3.686 86.99 3.134 36.488-.559 67.461-2.469 87.702-4.046-9.173-27.378-44.732-47.787-87.202-47.787" fill="#ECC5AB"/><path d="M170.4 96.466c-.411.147-41.594 14.672-81.907 13.802-40.123-.867-60.816-12.963-61.02-13.085l-1.542 2.573c.525.315 8.479 4.975 23.966 8.746-.839 3.493-4.287 21.841 15.219 24.246 18.658 2.3 21.618-14.844 22.078-19.519.414.011.817.028 1.235.038 40.878.882 82.564-13.827 82.981-13.975l-1.01-2.826" fill="#ECC5AB"/><path d="M205.356 93.111l-12.5 1s6.917 24.665.228 35.278c-6.688 10.613-25.825 20.061-37.585 13.835-13.29-7.036-29.337-11.215-40.572-10.118-11.236-1.097-27.283 3.082-40.573 10.118-11.759 6.226-30.896-3.222-37.585-13.835-6.688-10.613.229-35.278.229-35.278l-12.5-1s-3.178 11.836-2 32c.036.621.082 1.21.124 1.815l-.124-.315s-1.333 12 2.667 28.333c4 16.334 11.333 22 11.333 22l2.225-1.271c.131.221.261.441.395.663.839 1.895 3.895 7.592 13.713 17.942 12.333 13 21.667 14.666 21.667 14.666l1.354-2.164c17.667 7.404 37.219 11.442 39 11.802l.004.029.071-.014.071.014.004-.029c1.683-.341 19.259-3.97 36.105-10.625l.724 2.654s17.666-6 27-14.667c7.484-6.948 12.393-18.819 14.046-23.254.237-.413.472-.823.702-1.229l2.586.817s6.333-11.334 8.666-23c1.69-8.455 2.156-16.731 2.285-20.649.089-1.146.169-2.314.24-3.518 1.177-20.164-2-32-2-32" fill="#B54626"/><path d="M179.106 123.58a9 9 0 1 1-18 0 9 9 0 0 1 18 0" fill="#ECC5AB"/><path d="M178.106 121.913a9 9 0 1 1-18 0 9 9 0 0 1 18 0" fill="#FFF"/><path d="M175.606 121.913a6.5 6.5 0 1 1-13 0 6.5 6.5 0 0 1 13 0" fill="#151414"/><path d="M169.17 120.33a2.005 2.005 0 1 1-4.01 0 2.005 2.005 0 0 1 4.01 0" fill="#E1E0DE"/><path d="M36.678 95.335L24.561 97.49s2.498 3.122 3.747 4.163a53.482 53.482 0 0 0 2.706 2.082s-1.04 3.123.417 11.867c.819 4.916 2.691 8.911 4.173 11.466-3.962-9.862-.106-27.038 1.074-31.733m160.255-1.55c.94 4.4 3.014 16.67 2.232 36.494-1 25.333-8 34.666-8 34.666s-5.667-2.666-5.667-1.666-1.667 10.666-9.667 23.666-20.333 17-20.333 17l-2.667-5.666s-6.666 5-18.666 11-19 7.666-19 7.666-6.667-1-12.667-2.333c-4.081-.907-14.635-3.818-20.971-5.587 15.95 5.974 31.734 9.235 33.325 9.557l.004.029.071-.014.071.014.004-.029c1.683-.341 19.259-3.97 36.105-10.625l.724 2.654s17.666-6 27-14.667c7.484-6.948 12.393-18.819 14.046-23.254.237-.413.472-.823.702-1.229l2.586.817s6.333-11.334 8.666-23c1.69-8.455 2.156-16.731 2.285-20.649.089-1.146.169-2.314.24-3.518 1.177-20.164-2-32-2-32l-8.423.674" fill="#A03D21"/><path d="M169.4 95.133c-.411.147-41.594 14.672-81.907 13.802-40.123-.867-60.816-12.963-61.02-13.085l-1.542 2.573c.525.315 8.479 4.975 23.965 8.746-.838 3.493-4.286 21.841 15.22 24.246 18.658 2.3 21.618-14.844 22.078-19.519.414.011.817.028 1.235.038 40.878.882 82.564-13.827 82.981-13.976l-1.01-2.825" fill="#151414"/><path d="M1.498 96.611s48.666 6 114 5 112-5.334 112-5.334l.333-36.333s-41.334-2.334-51-13.667c-9.666-11.333-17.667-45.333-64-45.333s-44.999 35-57.666 45.333c-12.667 10.334-54.667 15-54.667 15l1 35.334" fill="#151414"/><path d="M156.498 107.611c1.083-1.069 6.587-2.821 13.333-3.334 6.746-.512 14.293-.573 15 .667.707 1.24-1.279 8.746-3.333 8.667-2.054-.079-4.275-2.348-10.333-2.334-6.058.015-10.546 2.553-12.334 2-1.788-.552-3.416-4.598-2.333-5.666" fill="#ECC5AB"/><path d="M155.498 105.944c1.083-1.068 6.587-2.821 13.333-3.333 6.746-.513 14.293-.574 15 .666.707 1.241-1.279 8.746-3.333 8.667-2.054-.079-4.275-2.347-10.333-2.333-6.058.014-10.546 2.552-12.334 2-1.788-.552-3.416-4.598-2.333-5.667" fill="#B54626"/><path d="M95.959 127.473s1.128 7.335 3.667 8.839c2.539 1.504 8.182.094 8.182.094s4.419 4.325 9.873 4.325 9.403-4.325 9.403-4.325 4.891.94 7.899-.188c3.009-1.129 3.667-5.266 3.667-5.266s-7.24-11.096-20.405-11.096c-13.165 0-22.286 7.617-22.286 7.617" fill="#F6E0C9"/><path d="M135.959 135.523c-.211.149-.416.298-.648.442-2.821 1.748-8.227.441-8.227.441s-3.905 3.729-10.171 4c-6.265.272-9.515-4.282-9.515-4.282s-4.8 1.429-7.296.159c-.808-.411-1.553-1.063-2.194-1.756-.603.133-1.211.28-1.819.429.346 1.646.994 3.426 2.221 4.264 2.595 1.772 8.685.503 8.685.503s3.179 4.432 10.629 4.221c7.451-.212 9.984-4.16 9.984-4.16s5.563 1.247 9.111-.352c1.314-.593 2.017-1.761 2.383-2.997a93.998 93.998 0 0 0-3.143-.912" fill="#A03D21"/><path d="M96.326 128.755s1.528 5.232 3.943 6.502c2.415 1.27 7.582-.296 7.582-.296s3.489 4.939 9.55 4.668c6.062-.272 9.362-4.373 9.362-4.373s5.842 1.453 8.569-.295c2.728-1.748 3.251-5.615 3.251-5.615s.865 5.793-2.567 7.392c-3.433 1.599-8.814.353-8.814.353s-2.451 3.948-9.659 4.159c-7.208.212-10.283-4.221-10.283-4.221s-5.891 1.269-8.402-.503c-2.51-1.772-2.532-7.771-2.532-7.771" fill="#ECC5AB"/><path d="M115.894 131.187c0 1.48-1.178 2.68-2.632 2.68-1.454 0-2.633-1.2-2.633-2.68 0-1.48 1.179-2.68 2.633-2.68s2.632 1.2 2.632 2.68" fill="#FFEFE1"/><path d="M134.952 151.065c1.025 2.139-.409 4.947-3.306 5.878a48.462 48.462 0 0 1-29.754 0c-2.897-.931-4.33-3.739-3.307-5.878 1.024-2.153 3.649-3.047 5.948-2.313a39.905 39.905 0 0 0 24.472 0c2.299-.734 4.924.16 5.947 2.313" fill="#151414"/><path d="M147.503 43.485c0 9.865-14.661 17.862-32.745 17.862-18.084 0-32.745-7.997-32.745-17.862 0-9.864 14.661-17.862 32.745-17.862 18.084 0 32.745 7.998 32.745 17.862" fill="#FFFDE6"/><path d="M94.455 55.87s-.832 8.455 1.906 11.55c.71.803 3.446 1.332 7.118 1.644v-5.217a.596.596 0 0 1 1.191 0v5.31c2.864.197 6.182.278 9.527.264v-5.574a.595.595 0 0 1 1.191 0v5.567c3.356-.037 6.674-.166 9.526-.367v-5.2a.596.596 0 0 1 1.19 0v5.111c3.897-.316 6.69-.771 7.052-1.299 1.312-1.905 2.026-11.671 2.026-11.671l-40.727-.118" fill="#FFFDE6"/><path d="M104.687 49.729a4.355 4.355 0 1 1-8.71 0v-9.39a4.356 4.356 0 0 1 8.71 0v9.39m28.852 0a4.356 4.356 0 0 1-8.71 0v-9.39a4.354 4.354 0 1 1 8.71 0v9.39m-19.299 6.559a1.548 1.548 0 0 1-3.094 0v-3.337a1.546 1.546 0 1 1 3.094 0v3.337m4.129 0a1.546 1.546 0 1 1-3.094 0v-3.337a1.546 1.546 0 1 1 3.094 0v3.337" fill="#151414"/><path fill="#FFFDE6" d="M141.716 73.227L89.94 88.38l-1.61-5.507 51.775-15.15 1.611 5.504"/><path d="M91.805 81.396a4.08 4.08 0 0 1-2.771 5.063 4.082 4.082 0 1 1 2.771-5.063" fill="#FFFDE6"/><path d="M93.664 87.748a4.082 4.082 0 1 1-7.834 2.295 4.082 4.082 0 0 1 7.834-2.295m50.023-21.534a4.08 4.08 0 0 1-2.773 5.063 4.079 4.079 0 0 1-5.062-2.771 4.08 4.08 0 0 1 2.771-5.063 4.081 4.081 0 0 1 5.064 2.771" fill="#FFFDE6"/><path d="M145.546 72.566a4.081 4.081 0 0 1-2.772 5.063 4.079 4.079 0 0 1-5.063-2.77 4.08 4.08 0 0 1 2.771-5.064 4.084 4.084 0 0 1 5.064 2.771m-5.502 16.114L88.356 73.231 90 67.733l51.687 15.45-1.643 5.497" fill="#FFFDE6"/><path d="M93.722 68.385a4.084 4.084 0 0 1-7.824-2.339 4.084 4.084 0 0 1 7.824 2.339" fill="#FFFDE6"/><path d="M91.825 74.727a4.083 4.083 0 0 1-7.823-2.338 4.083 4.083 0 0 1 7.823 2.338m53.689 9.14a4.083 4.083 0 1 1-7.822-2.343 4.083 4.083 0 0 1 7.822 2.343" fill="#FFFDE6"/><path d="M143.617 90.208a4.082 4.082 0 1 1-7.821-2.337 4.082 4.082 0 0 1 7.821 2.337" fill="#FFFDE6"/></g></svg>

<?xml version="1.0" encoding="UTF-8"?>
<svg width="228px" height="219px" viewBox="0 0 228 219" version="1.1" xmlns="http://www.w3.org/2000/svg" xmlns:xlink="http://www.w3.org/1999/xlink">
    <!-- Generator: Sketch 43 (38999) - http://www.bohemiancoding.com/sketch -->
    <title>Pirate Head</title>
    <desc>Created with Sketch.</desc>
    <defs></defs>
    <g id="Page-1" stroke="none" stroke-width="1" fill="none" fill-rule="evenodd">
        <g id="pirate" transform="translate(-606.000000, -42.000000)">
            <g id="Pirate-Head" transform="translate(606.000000, 42.000000)">
                <path d="M204.498,115.861 C204.498,149.964 164.428,177.611 114.998,177.611 C65.568,177.611 25.498,149.964 25.498,115.861 C25.498,81.757 65.568,54.111 114.998,54.111 C164.428,54.111 204.498,81.757 204.498,115.861" id="Fill-38" fill="#F6E0C9"></path>
                <path d="M171.831,148.444 C171.831,156.913 164.966,163.778 156.497,163.778 C148.029,163.778 141.164,156.913 141.164,148.444 C141.164,139.976 148.029,133.111 156.497,133.111 C164.966,133.111 171.831,139.976 171.831,148.444" id="Fill-39" fill="#ECC5AB"></path>
                <path d="M88.165,148.444 C88.165,156.913 81.3,163.778 72.831,163.778 C64.363,163.778 57.498,156.913 57.498,148.444 C57.498,139.976 64.363,133.111 72.831,133.111 C81.3,133.111 88.165,139.976 88.165,148.444" id="Fill-40" fill="#ECC5AB"></path>
                <path d="M10.797,115.213 C10.797,121.326 15.753,126.282 21.866,126.282 C27.979,126.282 32.934,121.326 32.934,115.213 C32.934,109.101 27.979,104.145 21.866,104.145 C15.753,104.145 10.797,109.101 10.797,115.213" id="Fill-41" fill="#F6E0C9"></path>
                <path d="M14.268,115.356 C14.268,115.356 13.911,111.664 16.425,109.638 C18.94,107.611 23.34,107.873 23.34,107.873 C23.34,107.873 19.089,111.002 17.93,114.041 C17.494,115.181 17.246,117.137 17.809,118.595 C18.746,121.028 20.937,122.848 20.937,122.848 C20.937,122.848 18.402,121.839 16.949,119.736 C15.961,118.302 15.772,115.937 16.062,114.697 C16.781,111.639 18.528,110.315 18.528,110.315 C18.528,110.315 17.732,110.231 16.433,111.183 C14.915,112.295 14.268,115.356 14.268,115.356" id="Fill-42" fill="#ECC5AB"></path>
                <path d="M218.895,115.213 C218.895,121.326 213.938,126.282 207.825,126.282 C201.713,126.282 196.758,121.326 196.758,115.213 C196.758,109.101 201.713,104.145 207.825,104.145 C213.938,104.145 218.895,109.101 218.895,115.213" id="Fill-43" fill="#F6E0C9"></path>
                <path d="M215.424,115.356 C215.424,115.356 215.78,111.664 213.267,109.638 C210.752,107.611 206.352,107.873 206.352,107.873 C206.352,107.873 210.602,111.002 211.762,114.041 C212.197,115.181 212.445,117.137 211.883,118.595 C210.945,121.028 208.754,122.848 208.754,122.848 C208.754,122.848 211.289,121.839 212.742,119.736 C213.731,118.302 213.92,115.937 213.63,114.697 C212.91,111.639 211.163,110.315 211.163,110.315 C211.163,110.315 211.959,110.231 213.259,111.183 C214.776,112.295 215.424,115.356 215.424,115.356" id="Fill-44" fill="#ECC5AB"></path>
                <path d="M114.998,53.111 C72.059,53.111 36.19,73.975 27.508,101.81 C47.76,103.61 78.435,105.496 114.498,104.944 C150.986,104.385 181.959,102.475 202.2,100.898 C193.027,73.52 157.468,53.111 114.998,53.111" id="Fill-45" fill="#ECC5AB"></path>
                <path d="M170.4,96.466 C169.989,96.613 128.806,111.138 88.493,110.268 C48.37,109.401 27.677,97.305 27.473,97.183 L25.931,99.756 C26.456,100.071 34.41,104.731 49.897,108.502 C49.058,111.995 45.61,130.343 65.116,132.748 C83.774,135.048 86.734,117.904 87.194,113.229 C87.608,113.24 88.011,113.257 88.429,113.267 C129.307,114.149 170.993,99.44 171.41,99.292 L170.4,96.466" id="Fill-46" fill="#ECC5AB"></path>
                <path d="M205.356,93.111 L192.856,94.111 C192.856,94.111 199.773,118.776 193.084,129.389 C186.396,140.002 167.259,149.45 155.499,143.224 C142.209,136.188 126.162,132.009 114.927,133.106 C103.691,132.009 87.644,136.188 74.354,143.224 C62.595,149.45 43.458,140.002 36.769,129.389 C30.081,118.776 36.998,94.111 36.998,94.111 L24.498,93.111 C24.498,93.111 21.32,104.947 22.498,125.111 C22.534,125.732 22.58,126.321 22.622,126.926 L22.498,126.611 C22.498,126.611 21.165,138.611 25.165,154.944 C29.165,171.278 36.498,176.944 36.498,176.944 L38.723,175.673 C38.854,175.894 38.984,176.114 39.118,176.336 C39.957,178.231 43.013,183.928 52.831,194.278 C65.164,207.278 74.498,208.944 74.498,208.944 L75.852,206.78 C93.519,214.184 113.071,218.222 114.852,218.582 C114.853,218.591 114.856,218.611 114.856,218.611 C114.856,218.611 114.881,218.606 114.927,218.597 C114.973,218.606 114.998,218.611 114.998,218.611 C114.998,218.611 115.001,218.591 115.002,218.582 C116.685,218.241 134.261,214.612 151.107,207.957 L151.831,210.611 C151.831,210.611 169.497,204.611 178.831,195.944 C186.315,188.996 191.224,177.125 192.877,172.69 C193.114,172.277 193.349,171.867 193.579,171.461 L196.165,172.278 C196.165,172.278 202.498,160.944 204.831,149.278 C206.521,140.823 206.987,132.547 207.116,128.629 C207.205,127.483 207.285,126.315 207.356,125.111 C208.533,104.947 205.356,93.111 205.356,93.111" id="Fill-47" fill="#B54626"></path>
                <path d="M179.106,123.58 C179.106,128.551 175.077,132.58 170.106,132.58 C165.136,132.58 161.106,128.551 161.106,123.58 C161.106,118.609 165.136,114.58 170.106,114.58 C175.077,114.58 179.106,118.609 179.106,123.58" id="Fill-48" fill="#ECC5AB"></path>
                <path d="M178.106,121.913 C178.106,126.884 174.077,130.913 169.106,130.913 C164.136,130.913 160.106,126.884 160.106,121.913 C160.106,116.942 164.136,112.913 169.106,112.913 C174.077,112.913 178.106,116.942 178.106,121.913" id="Fill-49" fill="#FFFFFF"></path>
                <path d="M175.606,121.913 C175.606,125.503 172.696,128.413 169.106,128.413 C165.517,128.413 162.606,125.503 162.606,121.913 C162.606,118.322 165.517,115.413 169.106,115.413 C172.696,115.413 175.606,118.322 175.606,121.913" id="Fill-50" fill="#151414"></path>
                <path d="M169.17,120.33 C169.17,121.437 168.273,122.335 167.164,122.335 C166.058,122.335 165.159,121.437 165.159,120.33 C165.159,119.222 166.058,118.325 167.164,118.325 C168.273,118.325 169.17,119.222 169.17,120.33" id="Fill-51" fill="#E1E0DE"></path>
                <path d="M36.678,95.335 L24.561,97.49 C24.561,97.49 27.059,100.612 28.308,101.653 C29.557,102.694 31.014,103.735 31.014,103.735 C31.014,103.735 29.974,106.858 31.431,115.602 C32.25,120.518 34.122,124.513 35.604,127.068 C31.642,117.206 35.498,100.03 36.678,95.335" id="Fill-52" fill="#A03D21"></path>
                <path d="M196.933,93.785 C197.873,98.185 199.947,110.455 199.165,130.279 C198.165,155.612 191.165,164.945 191.165,164.945 C191.165,164.945 185.498,162.279 185.498,163.279 C185.498,164.279 183.831,173.945 175.831,186.945 C167.831,199.945 155.498,203.945 155.498,203.945 L152.831,198.279 C152.831,198.279 146.165,203.279 134.165,209.279 C122.165,215.279 115.165,216.945 115.165,216.945 C115.165,216.945 108.498,215.945 102.498,214.612 C98.417,213.705 87.863,210.794 81.527,209.025 C97.477,214.999 113.261,218.26 114.852,218.582 C114.853,218.591 114.856,218.611 114.856,218.611 C114.856,218.611 114.881,218.606 114.927,218.597 C114.973,218.606 114.998,218.611 114.998,218.611 C114.998,218.611 115.001,218.591 115.002,218.582 C116.685,218.241 134.261,214.612 151.107,207.957 L151.831,210.611 C151.831,210.611 169.497,204.611 178.831,195.944 C186.315,188.996 191.224,177.125 192.877,172.69 C193.114,172.277 193.349,171.867 193.579,171.461 L196.165,172.278 C196.165,172.278 202.498,160.944 204.831,149.278 C206.521,140.823 206.987,132.547 207.116,128.629 C207.205,127.483 207.285,126.315 207.356,125.111 C208.533,104.947 205.356,93.111 205.356,93.111 L196.933,93.785" id="Fill-53" fill="#A03D21"></path>
                <path d="M169.4,95.133 C168.989,95.28 127.806,109.805 87.493,108.935 C47.37,108.068 26.677,95.972 26.473,95.85 L24.931,98.423 C25.456,98.738 33.41,103.398 48.896,107.169 C48.058,110.662 44.61,129.01 64.116,131.415 C82.774,133.715 85.734,116.571 86.194,111.896 C86.608,111.907 87.011,111.924 87.429,111.934 C128.307,112.816 169.993,98.107 170.41,97.958 L169.4,95.133" id="Fill-54" fill="#151414"></path>
                <path d="M1.498,96.611 C1.498,96.611 50.164,102.611 115.498,101.611 C180.832,100.611 227.498,96.277 227.498,96.277 L227.831,59.944 C227.831,59.944 186.497,57.61 176.831,46.277 C167.165,34.944 159.164,0.944 112.831,0.944 C66.498,0.944 67.832,35.944 55.165,46.277 C42.498,56.611 0.498,61.277 0.498,61.277 L1.498,96.611" id="Fill-55" fill="#151414"></path>
                <path d="M156.498,107.611 C157.581,106.542 163.085,104.79 169.831,104.277 C176.577,103.765 184.124,103.704 184.831,104.944 C185.538,106.184 183.552,113.69 181.498,113.611 C179.444,113.532 177.223,111.263 171.165,111.277 C165.107,111.292 160.619,113.83 158.831,113.277 C157.043,112.725 155.415,108.679 156.498,107.611" id="Fill-56" fill="#ECC5AB"></path>
                <path d="M155.498,105.944 C156.581,104.876 162.085,103.123 168.831,102.611 C175.577,102.098 183.124,102.037 183.831,103.277 C184.538,104.518 182.552,112.023 180.498,111.944 C178.444,111.865 176.223,109.597 170.165,109.611 C164.107,109.625 159.619,112.163 157.831,111.611 C156.043,111.059 154.415,107.013 155.498,105.944" id="Fill-57" fill="#B54626"></path>
                <path d="M95.959,127.473 C95.959,127.473 97.087,134.808 99.626,136.312 C102.165,137.816 107.808,136.406 107.808,136.406 C107.808,136.406 112.227,140.731 117.681,140.731 C123.135,140.731 127.084,136.406 127.084,136.406 C127.084,136.406 131.975,137.346 134.983,136.218 C137.992,135.089 138.65,130.952 138.65,130.952 C138.65,130.952 131.41,119.856 118.245,119.856 C105.08,119.856 95.959,127.473 95.959,127.473" id="Fill-58" fill="#F6E0C9"></path>
                <path d="M135.959,135.523 C135.748,135.672 135.543,135.821 135.311,135.965 C132.49,137.713 127.084,136.406 127.084,136.406 C127.084,136.406 123.179,140.135 116.913,140.406 C110.648,140.678 107.398,136.124 107.398,136.124 C107.398,136.124 102.598,137.553 100.102,136.283 C99.294,135.872 98.549,135.22 97.908,134.527 C97.305,134.66 96.697,134.807 96.089,134.956 C96.435,136.602 97.083,138.382 98.31,139.22 C100.905,140.992 106.995,139.723 106.995,139.723 C106.995,139.723 110.174,144.155 117.624,143.944 C125.075,143.732 127.608,139.784 127.608,139.784 C127.608,139.784 133.171,141.031 136.719,139.432 C138.033,138.839 138.736,137.671 139.102,136.435 C138.052,136.11 137.004,135.807 135.959,135.523" id="Fill-59" fill="#A03D21"></path>
                <path d="M96.326,128.755 C96.326,128.755 97.854,133.987 100.269,135.257 C102.684,136.527 107.851,134.961 107.851,134.961 C107.851,134.961 111.34,139.9 117.401,139.629 C123.463,139.357 126.763,135.256 126.763,135.256 C126.763,135.256 132.605,136.709 135.332,134.961 C138.06,133.213 138.583,129.346 138.583,129.346 C138.583,129.346 139.448,135.139 136.016,136.738 C132.583,138.337 127.202,137.091 127.202,137.091 C127.202,137.091 124.751,141.039 117.543,141.25 C110.335,141.462 107.26,137.029 107.26,137.029 C107.26,137.029 101.369,138.298 98.858,136.526 C96.348,134.754 96.326,128.755 96.326,128.755" id="Fill-60" fill="#ECC5AB"></path>
                <path d="M115.894,131.187 C115.894,132.667 114.716,133.867 113.262,133.867 C111.808,133.867 110.629,132.667 110.629,131.187 C110.629,129.707 111.808,128.507 113.262,128.507 C114.716,128.507 115.894,129.707 115.894,131.187" id="Fill-61" fill="#FFEFE1"></path>
                <path d="M134.952,151.065 C135.977,153.204 134.543,156.012 131.646,156.943 C121.975,160.063 111.564,160.063 101.892,156.943 C98.995,156.012 97.562,153.204 98.585,151.065 C99.609,148.912 102.234,148.018 104.533,148.752 C112.487,151.315 121.051,151.315 129.005,148.752 C131.304,148.018 133.929,148.912 134.952,151.065" id="Fill-108" fill="#151414"></path>
                <path d="M147.503,43.485 C147.503,53.35 132.842,61.347 114.758,61.347 C96.674,61.347 82.013,53.35 82.013,43.485 C82.013,33.621 96.674,25.623 114.758,25.623 C132.842,25.623 147.503,33.621 147.503,43.485" id="Fill-92" fill="#FFFDE6"></path>
                <path d="M94.455,55.87 C94.455,55.87 93.623,64.325 96.361,67.42 C97.071,68.223 99.807,68.752 103.479,69.064 L103.479,63.847 C103.479,63.519 103.746,63.252 104.074,63.252 C104.403,63.252 104.67,63.519 104.67,63.847 L104.67,69.157 C107.534,69.354 110.852,69.435 114.197,69.421 L114.197,63.847 C114.197,63.519 114.463,63.252 114.792,63.252 C115.12,63.252 115.388,63.519 115.388,63.847 L115.388,69.414 C118.744,69.377 122.062,69.248 124.914,69.047 L124.914,63.847 C124.914,63.519 125.181,63.252 125.51,63.252 C125.838,63.252 126.104,63.519 126.104,63.847 L126.104,68.958 C130.001,68.642 132.794,68.187 133.156,67.659 C134.468,65.754 135.182,55.988 135.182,55.988 L94.455,55.87" id="Fill-93" fill="#FFFDE6"></path>
                <path d="M104.687,49.729 C104.687,52.134 102.738,54.084 100.332,54.084 C97.928,54.084 95.977,52.134 95.977,49.729 L95.977,40.339 C95.977,37.933 97.928,35.983 100.332,35.983 C102.738,35.983 104.687,37.933 104.687,40.339 L104.687,49.729" id="Fill-94" fill="#151414"></path>
                <path d="M133.539,49.729 C133.539,52.134 131.588,54.084 129.184,54.084 C126.777,54.084 124.829,52.134 124.829,49.729 L124.829,40.339 C124.829,37.933 126.777,35.983 129.184,35.983 C131.588,35.983 133.539,37.933 133.539,40.339 L133.539,49.729" id="Fill-95" fill="#151414"></path>
                <path d="M114.24,56.288 C114.24,57.142 113.547,57.835 112.692,57.835 C111.837,57.835 111.146,57.142 111.146,56.288 L111.146,52.951 C111.146,52.097 111.837,51.404 112.692,51.404 C113.547,51.404 114.24,52.097 114.24,52.951 L114.24,56.288" id="Fill-96" fill="#151414"></path>
                <path d="M118.369,56.288 C118.369,57.142 117.678,57.835 116.823,57.835 C115.969,57.835 115.275,57.142 115.275,56.288 L115.275,52.951 C115.275,52.097 115.969,51.404 116.823,51.404 C117.678,51.404 118.369,52.097 118.369,52.951 L118.369,56.288" id="Fill-97" fill="#151414"></path>
                <polyline id="Fill-98" fill="#FFFDE6" points="141.716 73.227 89.94 88.38 88.33 82.873 140.105 67.723 141.716 73.227"></polyline>
                <path d="M91.805,81.396 C92.439,83.559 91.198,85.826 89.034,86.459 C86.871,87.093 84.602,85.853 83.97,83.688 C83.338,81.525 84.578,79.258 86.742,78.625 C88.904,77.992 91.172,79.232 91.805,81.396" id="Fill-99" fill="#FFFDE6"></path>
                <path d="M93.664,87.748 C94.298,89.913 93.057,92.179 90.894,92.813 C88.73,93.446 86.463,92.206 85.829,90.042 C85.195,87.878 86.437,85.611 88.602,84.978 C90.765,84.345 93.031,85.585 93.664,87.748" id="Fill-100" fill="#FFFDE6"></path>
                <path d="M143.687,66.214 C144.32,68.378 143.079,70.644 140.914,71.277 C138.752,71.911 136.484,70.67 135.852,68.506 C135.218,66.343 136.458,64.076 138.623,63.443 C140.787,62.81 143.053,64.049 143.687,66.214" id="Fill-101" fill="#FFFDE6"></path>
                <path d="M145.546,72.566 C146.178,74.73 144.938,76.997 142.774,77.629 C140.611,78.263 138.344,77.024 137.711,74.859 C137.076,72.696 138.317,70.429 140.482,69.795 C142.644,69.163 144.913,70.403 145.546,72.566" id="Fill-102" fill="#FFFDE6"></path>
                <polyline id="Fill-103" fill="#FFFDE6" points="140.044 88.68 88.356 73.231 90 67.733 141.687 83.183 140.044 88.68"></polyline>
                <path d="M93.722,68.385 C93.075,70.545 90.801,71.771 88.641,71.126 C86.481,70.481 85.254,68.206 85.898,66.046 C86.543,63.887 88.818,62.659 90.979,63.306 C93.138,63.95 94.365,66.225 93.722,68.385" id="Fill-104" fill="#FFFDE6"></path>
                <path d="M91.825,74.727 C91.179,76.887 88.904,78.114 86.745,77.469 C84.584,76.822 83.357,74.548 84.002,72.389 C84.648,70.229 86.923,69.001 89.085,69.648 C91.241,70.292 92.469,72.567 91.825,74.727" id="Fill-105" fill="#FFFDE6"></path>
                <path d="M145.514,83.867 C144.868,86.026 142.593,87.253 140.433,86.607 C138.274,85.962 137.047,83.688 137.691,81.528 C138.337,79.367 140.61,78.14 142.771,78.786 C144.931,79.432 146.158,81.706 145.514,83.867" id="Fill-106" fill="#FFFDE6"></path>
                <path d="M143.617,90.208 C142.972,92.368 140.697,93.595 138.538,92.95 C136.376,92.303 135.15,90.03 135.796,87.869 C136.44,85.711 138.715,84.482 140.877,85.129 C143.034,85.774 144.263,88.049 143.617,90.208" id="Fill-107" fill="#FFFDE6"></path>
            </g>
        </g>
    </g>
</svg>
